X: 1
T: the Fractal Hornpipe
C: Rob Flax 2020
R: hornpipe
S: youtube.com/watch?v=sbQuGyW5a-A 2020-08-27
Z: 2020 John Chambers <jc:trillian.mit.edu>
M: C
L: 1/8
K: D
"^A"|:\
D2 FA AG FE | FA df ec A2 | (3Abc dB A2 G2 | FG AF E2 DE |
FA AB A2 de | f2 ef dB BA | (3ABc dB Ad AG | FG AF E4 :|
"^B"|:\
A2 cd e2 ag | fa ec d2 (3DEF | GA Bc d2 B2 | Ad AG FE DE |
DF FB A2 dc | BG Bd A2 (3AGF | EC EA FD FA | ED CE D4 :|
